X:1
T:Comin' Round the Mountain
M:2/4
L:1/8
K:Ab
 EF| AA A3/2 A/2| cA AA| B A3| z2 EF| AA A3/2 A/2| cA A3/2 A/2| B4|\
 z2 e2| f2 e2| c2 A2| BA AA| A2 A2| c2 c3/2 c/2| B3/2 B/2 B3/2 B/2|\
 A4-| A2||
